images/icons/soundcloud.svg

<svg fill="none" height="24" viewBox="0 0 24 24" width="24" xmlns="http://www.w3.org/2000/svg"><path d="m4.1775 11.6114.2175 2.4375-.2175 2.5612c-.01125.0938-.0825.165-.165.165s-.1575-.0712-.1575-.165l-.21-2.5612.21-2.4375c0-.0825.07125-.1575.1575-.1575.0825 0 .15375.075.165.1575zm.8025-1.71004c-.105 0-.17625.0825-.1875.18754l-.1875 3.96.1875 2.5612c.01125.105.0825.1875.1875.1875.09375 0 .17625-.0825.17625-.1875l.2175-2.5612-.2175-3.96c0-.10504-.0825-.18754-.17625-.18754zm.95625-.90375c-.11625 0-.19875.0825-.21.19875l-.165 4.87504.165 2.5425c.01125.1162.09375.1987.21.1987.105 0 .19875-.0825.19875-.1987l.19875-2.5425-.19875-4.87504c0-.11625-.09375-.19875-.19875-.19875zm-5.66625 3.62249c-.0525 0-.0825.0413-.09375.0938l-.17625 1.335.17625 1.3125c.01125.0525.04125.0937.09375.0937s.0825-.0412.09375-.0937l.21-1.3125-.21-1.335c-.01125-.0525-.04125-.0938-.09375-.0938zm.885-.8212c-.0525 0-.09375.0412-.09375.0937l-.24 2.1563.24 2.1037c0 .0638.04125.105.09375.105s.09375-.0412.105-.0937l.27-2.115-.27-2.1563c-.01125-.0525-.0525-.0937-.105-.0937zm.94875-.4275c-.06375 0-.11625.0525-.12375.1237l-.2175 2.5538.2175 2.4675c.01125.0637.06375.1162.12375.1162.06375 0 .11625-.0525.11625-.1162l.25875-2.4675-.25875-2.5538c0-.0712-.0525-.1237-.11625-.1237zm.94875-.0825c-.07125 0-.135.0525-.135.135l-.2175 2.625.2175 2.5425c0 .0825.06375.135.135.135s.135-.0525.14625-.135l.24-2.5425-.24-2.625c-.01125-.0825-.075-.135-.14625-.135zm9.0525-4.15879c-.0412-.03-.105-.0525-.1575-.0525-.0825 0-.1575.03-.21.07125-.0712.06375-.1162.1575-.1237.25125v.03l-.1238 6.62629.0638 1.2187.0637 1.1888c.0113.1762.1575.3225.3338.3225.1762 0 .3225-.1463.3225-.3225l.1462-2.4075-.1462-6.65629c-.015-.1125-.075-.2175-.1688-.27zm-1.0012.57375c-.0525-.03-.105-.0525-.165-.0525s-.1163.0225-.1651.0525c-.0825.0525-.1349.14625-.1349.25125l-.0113.06375-.105 6.03004s0 .0112.1163 2.46v.0112c0 .0638.0225.1238.0637.1763.0638.0712.1462.1162.24.1162.0825 0 .1575-.0412.21-.0937.0638-.0525.0938-.1238.0938-.21l.0112-.2513.1162-2.1975-.1237-6.10499c-.0112-.105-.0637-.19875-.1462-.25125zm-4.17755.84375c-.11625 0-.2175.105-.2175.22875l-.165 5.27254.165 2.52c.01125.1237.105.2175.2175.2175.12375 0 .2175-.0938.22875-.2175l.1875-2.52-.1875-5.27254c-.0075-.12375-.10125-.22875-.22875-.22875zm14.12625 2.35499c-.405 0-.7912.0825-1.1475.2288-.24-2.65504-2.4675-4.74004-5.1862-4.74004-.6675 0-1.3125.12375-1.8863.3525-.2287.0825-.2925.165-.2925.345v9.36374c0 .1875.1463.3225.3225.345h8.1863c1.6237 0 2.9475-1.3125 2.9475-2.9362.0037-1.635-1.32-2.9588-2.9438-2.9588zm-11.12625-2.26124c-.1575 0-.28125.12375-.2925.2925l-.12375 5.12624.12375 2.46c.01125.1575.135.2813.2925.2813.15755 0 .28125-.1238.28125-.2813l.1463-2.46-.1463-5.12624c-.0112-.16875-.1237-.2925-.28125-.2925zm-2.01-.2925c-.12375 0-.24.11625-.24.25125l-.14625 5.44879.14625 2.5087c.01125.135.11625.24.24.24.135 0 .24-.105.25125-.24l.165-2.5087-.165-5.44879c-.01125-.135-.11625-.25125-.25125-.25125zm1.00125.1275c-.14625 0-.25875.11625-.25875.25875l-.14625 5.31379.14625 2.49c.01125.1462.11625.2587.25875.2587s.25875-.1162.25875-.2587l.1575-2.49-.1575-5.31379c0-.14625-.1125-.25875-.25875-.25875z" fill="#fff"/></svg>

<svg width="24" height="24" viewBox="0 0 24 24" fill="none" xmlns="http://www.w3.org/2000/svg">
<path d="M4.1775 11.6114L4.395 14.0489L4.1775 16.6101C4.16625 16.7039 4.095 16.7751 4.0125 16.7751C3.93 16.7751 3.855 16.7039 3.855 16.6101L3.645 14.0489L3.855 11.6114C3.855 11.5289 3.92625 11.4539 4.0125 11.4539C4.095 11.4539 4.16625 11.5289 4.1775 11.6114ZM4.98 9.90136C4.875 9.90136 4.80375 9.98386 4.7925 10.0889L4.605 14.0489L4.7925 16.6101C4.80375 16.7151 4.875 16.7976 4.98 16.7976C5.07375 16.7976 5.15625 16.7151 5.15625 16.6101L5.37375 14.0489L5.15625 10.0889C5.15625 9.98386 5.07375 9.90136 4.98 9.90136ZM5.93625 8.99761C5.82 8.99761 5.7375 9.08011 5.72625 9.19636L5.56125 14.0714L5.72625 16.6139C5.7375 16.7301 5.82 16.8126 5.93625 16.8126C6.04125 16.8126 6.135 16.7301 6.135 16.6139L6.33375 14.0714L6.135 9.19636C6.135 9.08011 6.04125 8.99761 5.93625 8.99761ZM0.27 12.6201C0.2175 12.6201 0.1875 12.6614 0.17625 12.7139L0 14.0489L0.17625 15.3614C0.1875 15.4139 0.2175 15.4551 0.27 15.4551C0.3225 15.4551 0.3525 15.4139 0.36375 15.3614L0.57375 14.0489L0.36375 12.7139C0.3525 12.6614 0.3225 12.6201 0.27 12.6201V12.6201ZM1.155 11.7989C1.1025 11.7989 1.06125 11.8401 1.06125 11.8926L0.82125 14.0489L1.06125 16.1526C1.06125 16.2164 1.1025 16.2576 1.155 16.2576C1.2075 16.2576 1.24875 16.2164 1.26 16.1639L1.53 14.0489L1.26 11.8926C1.24875 11.8401 1.2075 11.7989 1.155 11.7989V11.7989ZM2.10375 11.3714C2.04 11.3714 1.9875 11.4239 1.98 11.4951L1.7625 14.0489L1.98 16.5164C1.99125 16.5801 2.04375 16.6326 2.10375 16.6326C2.1675 16.6326 2.22 16.5801 2.22 16.5164L2.47875 14.0489L2.22 11.4951C2.22 11.4239 2.1675 11.3714 2.10375 11.3714V11.3714ZM3.0525 11.2889C2.98125 11.2889 2.9175 11.3414 2.9175 11.4239L2.7 14.0489L2.9175 16.5914C2.9175 16.6739 2.98125 16.7264 3.0525 16.7264C3.12375 16.7264 3.1875 16.6739 3.19875 16.5914L3.43875 14.0489L3.19875 11.4239C3.1875 11.3414 3.12375 11.2889 3.0525 11.2889ZM12.105 7.13011C12.0638 7.10011 12 7.07761 11.9475 7.07761C11.865 7.07761 11.79 7.10761 11.7375 7.14886C11.6663 7.21261 11.6213 7.30636 11.6138 7.40011V7.43011L11.49 14.0564L11.5538 15.2751L11.6175 16.4639C11.6288 16.6401 11.775 16.7864 11.9513 16.7864C12.1275 16.7864 12.2738 16.6401 12.2738 16.4639L12.42 14.0564L12.2738 7.40011C12.2588 7.28761 12.1988 7.18261 12.105 7.13011V7.13011ZM11.1038 7.70386C11.0513 7.67386 10.9988 7.65136 10.9388 7.65136C10.8788 7.65136 10.8225 7.67386 10.7737 7.70386C10.6912 7.75636 10.6388 7.85011 10.6388 7.95511L10.6275 8.01886L10.5225 14.0489C10.5225 14.0489 10.5225 14.0601 10.6388 16.5089V16.5201C10.6388 16.5839 10.6613 16.6439 10.7025 16.6964C10.7663 16.7676 10.8487 16.8126 10.9425 16.8126C11.025 16.8126 11.1 16.7714 11.1525 16.7189C11.2163 16.6664 11.2463 16.5951 11.2463 16.5089L11.2575 16.2576L11.3737 14.0601L11.25 7.95511C11.2388 7.85011 11.1863 7.75636 11.1038 7.70386V7.70386ZM6.92625 8.54761C6.81 8.54761 6.70875 8.65261 6.70875 8.77636L6.54375 14.0489L6.70875 16.5689C6.72 16.6926 6.81375 16.7864 6.92625 16.7864C7.05 16.7864 7.14375 16.6926 7.155 16.5689L7.3425 14.0489L7.155 8.77636C7.1475 8.65261 7.05375 8.54761 6.92625 8.54761ZM21.0525 10.9026C20.6475 10.9026 20.2613 10.9851 19.905 11.1314C19.665 8.47636 17.4375 6.39136 14.7188 6.39136C14.0513 6.39136 13.4063 6.51511 12.8325 6.74386C12.6038 6.82636 12.54 6.90886 12.54 7.08886V16.4526C12.54 16.6401 12.6863 16.7751 12.8625 16.7976H21.0488C22.6725 16.7976 23.9963 15.4851 23.9963 13.8614C24 12.2264 22.6763 10.9026 21.0525 10.9026V10.9026ZM9.92625 8.64136C9.76875 8.64136 9.645 8.76511 9.63375 8.93386L9.51 14.0601L9.63375 16.5201C9.645 16.6776 9.76875 16.8014 9.92625 16.8014C10.0838 16.8014 10.2075 16.6776 10.2075 16.5201L10.3538 14.0601L10.2075 8.93386C10.1963 8.76511 10.0838 8.64136 9.92625 8.64136ZM7.91625 8.34886C7.7925 8.34886 7.67625 8.46511 7.67625 8.60011L7.53 14.0489L7.67625 16.5576C7.6875 16.6926 7.7925 16.7976 7.91625 16.7976C8.05125 16.7976 8.15625 16.6926 8.1675 16.5576L8.3325 14.0489L8.1675 8.60011C8.15625 8.46511 8.05125 8.34886 7.91625 8.34886V8.34886ZM8.9175 8.47636C8.77125 8.47636 8.65875 8.59261 8.65875 8.73511L8.5125 14.0489L8.65875 16.5389C8.67 16.6851 8.775 16.7976 8.9175 16.7976C9.06 16.7976 9.17625 16.6814 9.17625 16.5389L9.33375 14.0489L9.17625 8.73511C9.17625 8.58886 9.06375 8.47636 8.9175 8.47636V8.47636Z" fill="white"/>
</svg>
